!!!!SEGMENT: pl-wn--mus-8170--002_zelenski-wladyslaw--koledy-lulajze-jezuniu.krn
!!!cenid: 18xx:3664
!!!COM: Żeleński, Władysław
!!!COM-rismID: pe41024455
!!!CDT:
!!!CNT:
!!!OTL: Kolędy
!!!PDT:
!!!AGN:
!!!SMS-siglum: PL-Wn
!!!SMS-shelfmark: Mus.8170
!!!SMS-shelfwork: 002 W
!!!SMS-variant:
!!!SMS-altvar:
!!!NIFC-rismSourceID:
!!!NIFC-islandoraID:
!!!URL-pdf-islandora:
!!!URL-scan: https://polona.pl/item/koledy-w-ukladzie-na-chor-mieszany,NDU5Mzc1NDg/0/#info:metadata @EN{Scan on Polona} @PL{Skany w portalu Polona}
!!!ONB-nifc:
!!!AIN: 1 feme 1 male
!!!key: E-
**kern	**kern	**text
*group1	*group1	*
*part2	*part1	*part1
*staff2	*staff1	*staff1
*I"[Chór mieszany]	*I"[Chór mieszany]	*
*I'[Coro]	*I'[Coro]	*
*Imale	*Ifeme	*
*ICvox	*ICvox	*
*clefF4	*clefG2	*
*k[b-e-a-]	*k[b-e-a-]	*
*E-:	*E-:	*
*M3/4	*M3/4	*
=1	=1	=1
*^	*^	*
4B-/	4E-\	4g/	4e-\	Lu-
4c/	4C\	8g/L	4e-\	-laj-
.	.	8f/J	.	.
4B-/	4E-\	4g/	4e-\	-że
=2	=2	=2	=2	=2
4A-/	4F\	4a-/	4c\	Je-
4A-/	4F\	4a-/	8c\L	-zu-
.	.	.	8d\J	.
4B-/	4E-\	4g/	4e-\	-niu
=3	=3	=3	=3	=3
4c/	4A-\	4f/	4e-\	mo-
4c/	4A-\	4f/	4e-\	-ja
8B-/L	8G\L	8g/L	8e-\L	pe-
8A-/J	8F\J	8a-/J	8f\J	.
=4	=4	=4	=4	=4
(>4G/	4E-\	4b-/	(<4g\	-re-
8A-/L	2BB-\	2b-/	8f\L	łko,
8G/J)	.	.	8e-\J)	.
4F/	.	.	4d\	.
=5	=5	=5	=5	=5
4E-/	4E-\	4g/	4e-\	Lu-
4e-/	4E-\	8g/L	4e-\	-laj
.	.	8f/J	.	.
4d/	4E-\	4g/	4e-\	u-
!!LO:PB:g=original
=6	=6	=6	=6	=6
4c/	4F\	4a-/	4e-\	-lu-
4A-/	4F\	4a-/	8c\L	-bio-
.	.	.	8d\J	.
4B-/	4E-\	4g/	4e-\	-ne
=7	=7	=7	=7	=7
4c/	4AA-\	4f/	4f\	me
4.F/	4.BB-\	4.a-/	8e-\L	pieś-
.	.	.	8d\	.
.	.	.	8c\J	.
8F/	8BB-\	8g/	8e-\	ci-
=8	=8	=8	=8	=8
4F/	4E-\	4a-/	4d\	-deł-
2G/	2E-\	2g/	2e-\	-Ko
=9!|:	=9!|:	=9!|:	=9!|:	=9!|:
4G/	4E-\	4b-/	4e-\	Lu-
4G/	4E-\	4b-/	4e-\	-laj-
4B-/	8E-\L	8ee-/L	8g\L	-że
.	8G\J	8dd/J	8b-\J	.
=10	=10	=10	=10	=10
4c/	4A-\	4cc/	4a-\	Je-
4c/	4C\	8cc/L	8a-\L	-zu-
.	.	8b-/J	8g\J	.
4c/	8D\L	8cc/L	8a-\L	-niu
.	8E-\J	8b-/J	8g\J	.
!!LO:LB:g=original
=11	=11	=11	=11	=11
4c/	4F\	4a-/	4f\	lu-
4c/	4F\	4a-/	8f\L	-laj-
.	.	.	8g\J	.
4A-/	4F\	4cc/	8f\L	ze
.	.	.	8e-\J	.
=12	=12	=12	=12	=12
(>4A-/	4BB-\	4b-/	(<4d\	lu-
8A-/L	2BB-\	2b-/	8f\L)	-laj
8G/J)	.	.	8e-\J	.
4F/	.	.	4d\	.
=13	=13	=13	=13	=13
4E-/	4E-\	4g/	4e-\	A
4G/	4E-\	8g/L	8e-\L	Ty
.	.	8f/J	8d\J	.
4B-/	4D-X\	4g/	4e-\	go
=14	=14	=14	=14	=14
4c/	4C\	4a-/	4e-\	Ma-
4A-/	4F\	4a-/	8c\L	-tu-
.	.	.	8e-\J	.
4B-/	4E-\	4g/	4e-\	-lu
=15	=15	=15	=15	=15
8c/L	8BB-\L	4f/	4e-\	z pła-
8A-/J	8C\J	.	.	.
4.F/	4.BB-\	4.b-/	8e-\L	-czu
.	.	.	8d\	.
.	.	.	8c\J	.
8B-/	8BB-\	8a-/	8d\	o-
=16	=16	=16	=16	=16
4B-/	4E-\	4a-/	4d\	-tu-
2B-/	2E-\	2g/	2e-\	-laj.
*v	*v	*	*	*
*	*v	*v	*
==	==	==
*-	*-	*-
!!!system-decoration: [{g1}]
!!!RDF**kern: > = above
!!!RDF**kern: < = below
!!!ENC: Filip Voros
!!!END: 2022-02-17
!!!EED: Jędrzej Mróz
!!!EEV: 2022-03-01
